!!!OTL: Waechterlied.
!!!ARE: Europa, Mitteleuropa, Deutschland
!!!SCT: A0111
!!!TXL: @@GMH
!!!YEM: Copyright 1995, estate of Helmut Schaffrath.
**kern	**text
!! Mixed meters:  4/2; 6/2
*M4/2	*
*met(c|)	*
*clefC3	*
*k[]	*
*C:ion	*
=1	=1
!LO:TX:a:t=jon.	!
{1c	I._Aus
2A	her-
2B	-tem
=2	=2
1c	we
2r	.
2c	klagt
=3	=3
2d	ſich
2d	ein
1c	held
=4	=4
2r}	.
{2c	in
2e	ſtren-
2f	-ger
=5	=5
1.g	hut
2f	ver-
=6	=6
2e	-bor-
1g	.
4f	.
4e	.
=7	=7
2f	.
2e	.
1d	.
=8	=8
0c}	-gen;}
=9	=9
{1c	'Ich
2A	wünſch
2B	ir
=10	=10
1c	heil,
2r	.
2c	die
=11	=11
2d	mir
2d	ge-
1c	-felt,
=12	=12
2r}	.
{2c	kom
2e	ſchier,
2f	löſ
=13	=13
1.g	mich
2f	aus
=14	=14
2e	ſor-
1g	.
4f	.
4e	.
=15	=15
2f	.
2e	.
1d	.
=16	=16
1c	-gen!
2r}	.
{2g	O
=17	=17
2e	weib-
2d	-lich
1c	bild,
=18	=18
2r	.
2c	wie
2d	ſchläft
2d	ſo
=19	=19
1A	lang?
2r}	.
{2A	wilſt
=20	=20
2G	ſo-
2G	-lich
1d	klag
=21	=21
2c/	nit
1c	hö-
4B	.
4A	.
=22-	=22-
4B-	.
4A	.
4G	.
4F	.
1G	.
=23	=23
1F	-ren?
2r}	.
{2c	laß
=24	=24
2A	dich
2A	er-
1d	-we-
=25	=25
2c	-cken
*lig	*
1c	mein
4B	.
4A	.
=26	=26
2B	.
*Xlig	*
2B	ge-
1A	-ſang,
=27	=27
2r}	.
{2G	ſchick
2A	dich
2B	ʒu
=28	=28
1c	lie-
2B	-bes
*lig	*
1A	a-
=29-	=29-
.	.
4G	.
4F	.
2G	.
*Xlig	*
2G	-ne-
=30	=30
*M6/2	*
1F	-fang;
2r}	.
{2f	dein
2d	lieb
2d	wil
=31	=31
*M4/2	*
1g	mich
2f	be-
2e	-tö-
=32	=32
4f	.
4f	.
2.g	.
4f	.
1e	.
=33-	=33-
.	.
4d	.
4c	.
1d	.
=34	=34
0c\ll}	-ren.'
==	==
!!!GTL: Tage- oder Wächterlieder
!!!AGN: Romanze, Ballade, Lied
!! Forster III. 1549 No. 13.
!!!ONB: ESAC (Essen Associative Code) Database: ALTDEU
!!!AMT: irregular
!!!AIN: vox
!!!EED: Helmut Schaffrath
!!!EEV: 1.0
!!!RDF**kern: l = terminal long
!!!AMD: Ionian
!!!URL-scan: https://rosdok.uni-rostock.de/mcrviewer/recordIdentifier/rosdok_ppn738218359/iview2/phys_0280.iview2?x=-2091.770685579196&y=550.6647754157893&scale=0.2411630558722919&rotation=0&layout=singlePageLayout&logicalDiv=log_0008
!!!ENC: Anna Maria Matuszewska
!!!EEV: 2024/23/02
*-	*-
